**kern	**silbe	**kern	**silbe
*ICvox	*	*ICvox	*
=1	=1	=1	=1
*B:	*	*B:	*
*M4/4	*	*M4/4	*
*clefG2	*	*clefG2	*
1r	.	1r	.
=2	=2	=2	=2
1r	.	1r	.
=3	=3	=3	=3
1r	.	1r	.
=4	=4	=4	=4
1r	.	1r	.
=5	=5	=5	=5
1r	.	1r	.
=6	=6	=6	=6
1r	.	1r	.
=7	=7	=7	=7
1r	.	1r	.
=8	=8	=8	=8
1r	.	1r	.
=9	=9	=9	=9
*clefF4	*	*	*
4r	.	1r	.
8r	.	.	.
8B	I	.	.
6d#	ne-	.	.
6e	-ver	.	.
6f#	knew	.	.
=10	=10	=10	=10
4f#	love	2f#	Ooh
[4g#	like	.	.
8g#]	_	2b	_
8e	this	.	.
8d#	be-	.	.
[8e	-fore	.	.
=11	=11	=11	=11
4e]	,	1cc#	...
4r	.	.	.
4c#	now	.	.
8d#	I'm	.	.
8d#	l-	.	.
=12	=12	=12	=12
f#q	_	1r	.
4g#	-one-	.	.
4f#	-ly	.	.
c#q	_	.	.
4d#	ne-	.	.
8c#	-ver-	.	.
8c#	-more	.	.
=13	=13	=13	=13
4B	...	1r	.
4r	.	.	.
8r	.	.	.
8d#	since	.	.
8c#	you	.	.
8c#	came	.	.
=14	=14	=14	=14
4B	,	1r	.
8r	.	.	.
8G#	in-	.	.
8B	-to	.	.
c#q	_	.	.
[8d#	my	.	.
8d#]	_	.	.
c#q	_	.	.
8d#	life	.	.
=15	=15	=15	=15
c#q	_	1r	.
8d#	_	.	.
[8c#	_	.	.
2c#]	_	.	.
4r	.	.	.
=16	=16	=16	=16
1r	.	1r	.
=17	=17	=17	=17
4r	.	1r	.
8r	.	.	.
8A	y-	.	.
6d#	-ou	.	.
6e	are	.	.
6f#	my	.	.
=18	=18	=18	=18
4f#	love-	2f#	Ooh
[4g#	-light	.	.
8g#]	,	2b	_
8e	this	.	.
8d#	I	.	.
[8e	know	.	.
=19	=19	=19	=19
4e]	_	1cc#	...
4r	.	.	.
8c#	And	.	.
8c#	I-	.	.
4d#	-'ll	.	.
=20	=20	=20	=20
f#q	_	1r	.
4g#	ne-	.	.
4f#	-ver	.	.
c#q	_	.	.
4d#	let	.	.
8c#	you	.	.
8c#	go	.	.
=21	=21	=21	=21
2B	_	1r	.
8r	.	.	.
8d#	You're	.	.
8c#	my	.	.
8c#	all	.	.
=22	=22	=22	=22
4B	_	1r	.
8r	.	.	.
8G#	You're	.	.
8B	part	.	.
8c#	_	.	.
8d#	of	.	.
8d#	me	.	.
=23	=23	=23	=23
16c#	_	1r	.
16B	_	.	.
[8c#	_	.	.
2c#]	_	.	.
4r	.	.	.
=24	=24	=24	=24
1r	.	1r	.
=25	=25	=25	=25
2r	.	1r	.
6d#	Once	.	.
6e	I	.	.
6f#	was	.	.
=26	=26	=26	=26
4f#	lost	2f#	Ooh
[4g#	and	.	.
8g#]	_	2b	_
8e	now	.	.
8d#	I'm	.	.
[8e	found	.	.
=27	=27	=27	=27
4e]	,	1cc#	...
4r	.	.	.
8c#	then	.	.
8c#	y-	.	.
4d#	-ou	.	.
=28	=28	=28	=28
f#q	_	1r	.
4g#	turned	.	.
4f#	my	.	.
c#q	_	.	.
4d#	life	.	.
8c#	a-	.	.
8c#	-round	.	.
=29	=29	=29	=29
2B	_	1r	.
8r	.	.	.
8d#	When	.	.
8c#	I	.	.
8c#	need	.	.
=30	=30	=30	=30
4B	,	1r	.
8r	.	.	.
8G#	I	.	.
8B	call	.	.
8c#	_	.	.
8d#	your	.	.
8d#	name	.	.
=31	=31	=31	=31
2.c#	_	1r	.
4r	.	.	.
=32	=32	=32	=32
2r	.	2r	.
8r	.	8r	.
8B	'Cause	8d# f#	'Cause
8c#	I	8e g#	I
8d#	ne-	8g# b	ne-
=33	=33	=33	=33
4d#	-ver,	4g# b	-ver
4r	.	4r	.
4r	.	4r	.
4d#	knew	4g# b	knew
=34	=34	=34	=34
8c#	love	8f# a#	love
8c#	l-	8f# a#	l-
4c#	-ike	4f# a#	-ike
4f#	this	4b dd#	this
8d#	be-	8g# b	be-
[8B	-fore	[8e [g#	-fore
=35	=35	=35	=35
2B]	_	2e] g#]	!
2r	.	2r	.
=36	=36	=36	=36
8g#	O-	2r	.
8f#	-pened	.	.
8d#	my	.	.
[8f#	eyes	.	.
8f#]	,	8r	.
8B	'cause	8d# f#	'Cause
8c#	I	8e g#	I
8d#	ne-	8g# b	ne-
=37	=37	=37	=37
c#q	_	4g# b	-ver
4d#	-ver,	.	.
4r	.	4r	.
4r	.	4r	.
4d#	knew	4g# b	knew
=38	=38	=38	=38
8c#	love	8f# a#	love
8c#	l-	8f# a#	l-
4c#	-ike	4f# a#	-ike
4f#	this	4b dd#	this
8d#	be-	8g# b	be-
[8B	-fore	[8e [g#	-fore
=39	=39	=39	=39
4.B]	_	2e] g#]	!
8r	.	.	.
2r	.	2r	.
=40	=40	=40	=40
8g#	What	2r	.
8f#	a	.	.
8d#	sur-	.	.
[8f#	-prise	.	.
8f#]	,	8r	.
8B	'cause	8d# f#	'Cause
8c#	I	8e g#	I
8d#	ne-	8g# b	ne-
=41	=41	=41	=41
c#q	_	4g# b	-ver
4d#	-ver,	.	.
4r	.	4r	.
4r	.	4r	.
4d#	knew	4g# b	knew
=42	=42	=42	=42
8c#	love	8f# a#	love
8c#	l-	8f# a#	l-
4c#	-ike	4f# a#	-ike
4f#	this	4b dd#	this
8d#	be-	8g# b	be-
[8B	-fore	[8c# [g#	-fore
=43	=43	=43	=43
2B_	_	2c#_ g#]	_
8B]	_	8c#] g#	_
8c#	_	8c# a#	_
8d#	_	8d# b	_
16d#	_	[8e [g# [b	_
[16c#	_	.	.
=44	=44	=44	=44
2c#]	_	2e] g#] b]	!
2r	.	2r	.
=45	=45	=45	=45
4r	.	1r	.
8r	.	.	.
8B	This	.	.
6d#	fee-	.	.
6e	-ling's	.	.
6f#	so	.	.
=46	=46	=46	=46
4f#	deep	2f#	Ooh
[4g#	in	.	.
8g#]	_	2b	_
8e	side	.	.
8d#	of	.	.
[8e	me	.	.
=47	=47	=47	=47
4e]	,	1cc#	...
4r	.	.	.
4c#	such	.	.
4d#	a	.	.
=48	=48	=48	=48
f#q	_	1r	.
4g#	ten-	.	.
4f#	-der	.	.
c#q	_	.	.
4d#	fan-	.	.
8c#	-ta-	.	.
8c#	-sy	.	.
=49	=49	=49	=49
4B	_	1r	.
4r	.	.	.
8r	.	.	.
8d#	You're	.	.
8c#	the	.	.
8c#	one	.	.
=50	=50	=50	=50
4B	,	1r	.
8r	.	.	.
8G#	I'm	.	.
8B	li	.	.
8c#	_	.	.
8d#	ving	.	.
8d#	for	.	.
=51	=51	=51	=51
16c#	_	1r	.
16B	_	.	.
[8c#	_	.	.
2c#]	_	.	.
4r	.	.	.
=52	=52	=52	=52
1r	.	1r	.
=53	=53	=53	=53
4r	.	1r	.
8r	.	.	.
8A	Y-	.	.
6d#	-ou	.	.
6e	are	.	.
6f#	my	.	.
=54	=54	=54	=54
4f#	sun-	2f#	Ooh
[4g#	-light	.	.
8g#]	_	2b	_
8e	and	.	.
8d#	my	.	.
[8e	rain	.	.
=55	=55	=55	=55
8e]	,	1cc#	...
8r	.	.	.
4r	.	.	.
4r	.	.	.
8r	.	.	.
8A#	and	.	.
=56	=56	=56	=56
f#q	_	1r	.
4g#	time	.	.
4f#	could	.	.
c#q	_	.	.
4d#	ne-	.	.
8c#	-ver	.	.
8c#	change	.	.
=57	=57	=57	=57
4.B	,	1r	.
8r	.	.	.
8r	.	.	.
8d#	what	.	.
8c#	we	.	.
8c#	shared	.	.
=58	=58	=58	=58
4B	,	1r	.
8r	.	.	.
8G#	fo-	.	.
8B	-re	.	.
8c#	_	.	.
8d#	ver-	.	.
8d#	-more	.	.
=59	=59	=59	=59
16c#	_	1r	.
16B	_	.	.
[8c#	_	.	.
2c#]	_	.	.
4r	.	.	.
=60	=60	=60	=60
*clefG2	*	*	*
4r	.	1r	.
8r	.	.	.
8cc#	Ooh	.	.
4b	_	.	.
16.g#	_	.	.
32f#	_	.	.
16g#	_	.	.
[16f#	_	.	.
=61	=61	=61	=61
*clefF4	*	*	*
4f#]	_	1r	.
8r	.	.	.
8B	I	.	.
6d#	ne-	.	.
6e	-ver	.	.
6f#	knew	.	.
=62	=62	=62	=62
4f#	love	2f#	Ooh
[4g#	like	.	.
8g#]	_	2b	_
8e	this	.	.
8d#	be-	.	.
[8e	-fore	.	.
=63	=63	=63	=63
4e]	,	1cc#	...
4r	.	.	.
4c#	now	.	.
8d#	I'm	.	.
8d#	l-	.	.
=64	=64	=64	=64
f#q	_	1r	.
4g#	-one-	.	.
4f#	-ly	.	.
c#q	_	.	.
4d#	ne-	.	.
8c#	-ver-	.	.
8c#	-more	.	.
=65	=65	=65	=65
[4B	_	1r	.
8.B]	,	.	.
16r	.	.	.
8r	.	.	.
8d#	since	.	.
8c#	you	.	.
8c#	came	.	.
=66	=66	=66	=66
4B	,	1r	.
8r	.	.	.
8G#	in-	.	.
8B	-to	.	.
[8d#	my	.	.
8d#]	_	.	.
c#q	_	.	.
8d#	life	.	.
=67	=67	=67	=67
c#q	_	1r	.
8d#	_	.	.
[8c#	_	.	.
2c#_	_	.	.
8c#]	_	.	.
8r	.	.	.
=68	=68	=68	=68
2r	.	2r	.
8r	.	8r	.
8B	'Cause	8d# f#	'Cause
8c#	I	8e g#	I
8d#	ne-	8g# b	ne-
=69	=69	=69	=69
c#q	_	4g# b	-ver
8d#	-ver	.	.
8c#	,	.	.
4r	.	4r	.
4r	.	4r	.
4d#	knew	4g# b	knew
=70	=70	=70	=70
8c#	love	8f# a#	love
8c#	l-	8f# a#	l-
4c#	-ike	4f# a#	-ike
4f#	this	4b dd#	this
8B	be-	8g# b	be-
Bq	_	[8e [g#	-fore
8c#	-fore	.	.
=71	=71	=71	=71
*clefG2	*	*	*
2B	_	2e] g#]	!
2r	.	2r	.
=72	=72	=72	=72
8f#	O-	2r	.
8g#	-pened	.	.
8b	my	.	.
[8b	eyes	.	.
8b]	,	8r	.
8B	'cause	8d# f#	'Cause
8c#	I	8e g#	I
8d#	ne-	8g# b	ne-
=73	=73	=73	=73
*clefF4	*	*	*
Bq	_	4g# b	-ver
8c#	-ver	.	.
8B	,	.	.
4r	.	4r	.
4r	.	4r	.
4d#	knew	4g# b	knew
=74	=74	=74	=74
8c#	love	8f# a#	love
8c#	l-	8f# a#	l-
4c#	-ike	4f# a#	-ike
4f#	this	4b dd#	this
8d#	be-	8g# b	be-
Bq	_	[8e [g#	-fore
8c#	-fore	.	.
=75	=75	=75	=75
[2B	_	2e] g#]	!
8B]	_	2r	.
8r	.	.	.
4r	.	.	.
=76	=76	=76	=76
*clefG2	*	*	*
8cc#	What	2r	.
8b	a	.	.
8g#	sur-	.	.
[8b	-prise	.	.
8b]	!	8r	.
8B	'Cause	8d# f#	'Cause
8c#	I	8e g#	I
8d#	ne-	8g# b	ne-
=77	=77	=77	=77
*clefF4	*	*	*
c#q	_	4g# b	-ver
8d#	-ver	.	.
8c#	,	.	.
4r	.	4r	.
4r	.	4r	.
c#q	_	4g# b	knew
8d#	knew	.	.
8c#	_	.	.
=78	=78	=78	=78
8c#	love	8f# a#	love
8c#	l-	8f# a#	l-
4c#	-ike	4f# a#	-ike
4f#	this	4b dd#	this
8B	be	8g# b	be-
Bq	_	[8e [g#	-fore
8c#	fore	.	.
=79	=79	=79	=79
*clefG2	*	*	*
[2.B	_	2e] g#]	!
.	.	2r	.
16B]	_	.	.
8r	.	.	.
[16f#	In	.	.
=80	=80	=80	=80
8f#]	_	2r	.
8g#	side	.	.
8b	of	.	.
8cc#	me	.	.
4.b	!	8r	.
.	.	8d# f#	'Cause
.	.	8e g#	I
8r	.	8g# b	ne-
=81	=81	=81	=81
4r	.	4g# b	-ver
8b	Ne-	4r	.
f#q	_	.	.
[8g#	-ver	.	.
8g#]	!	4r	.
8r	.	.	.
c#q	_	4g# b	knew
8d#	Knew	.	.
8c#	_	.	.
=82	=82	=82	=82
8c#	love	8f# a#	love
8c#	l-	8f# a#	l-
4c#	-ike	4f# a#	-ike
4f#	this	4b dd#	this
8B	be-	8g# b	be-
Bq	_	[8e [g#	-fore
8c#	-fore	.	.
=83	=83	=83	=83
2.B	_	2e] g#]	!
.	.	2r	.
4r	.	.	.
=84	=84	=84	=84
8f#	O-	1r	.
8g#	-pened	.	.
8b	my	.	.
[8b	eyes	.	.
4.b]	!	.	.
8r	.	.	.
=85	=85	=85	=85
2r	.	4r	.
.	.	a#q	_
.	.	4b	Ne
4r	.	f#q	_
.	.	4g#	ver,
8cc#	Ne-	4r	.
[8b	-ver	.	.
=86	=86	=86	=86
4b]	!	4r	.
4r	.	cc#q	_
.	.	4dd#	ne
4r	.	bq	_
.	.	2cc#	ver!
8r	.	.	.
8dd	Ne	.	.
=87	=87	=87	=87
16.cc#	_	2r	.
32dd	_	.	.
16cc#	_	.	.
[16b	ver	.	.
2b_	_	.	.
.	.	8f#	Ne-
.	.	8g#	-ver
8b]	!	4b	knew
8r	.	.	.
=88	=88	=88	=88
4r	.	4g# cc# ee	love
8r	.	4b dd# ff#	like
8g#	I	.	.
8r	.	4f# b dd#	this!
8f#	ne-	.	.
8f#	-ver	4r	.
8ee	knew	.	.
=89	=89	=89	=89
8dd#	_	4r	.
8cc#	_	.	.
4b	,	a#q	_
.	.	4b	_
8r	.	f#q	_
.	.	4g#	_
16f#	ne-	.	.
16f#	-ver	.	.
8f#	knew	4r	.
8ee	_	.	.
=90	=90	=90	=90
8dd#	_	4r	.
8cc#	_	.	.
4b	_	cc#q	_
.	.	4dd#	_
6r	.	bq	_
.	.	2cc#	_
bq	_	.	.
6cc#	Ne-	.	.
[6b	-ver	.	.
=91	=91	=91	=91
2b]	!	2r	.
2r	.	8f#	_
.	.	8g#	_
.	.	4b	_
=92	=92	=92	=92
2r	.	4g# cc# ee	_
.	.	4b dd# ff#	_
8r	.	4f# b dd#	_
8f#	I	.	.
16f#	ne-	4r	.
16f#	-ver	.	.
8f#	knew	.	.
=93	=93	=93	=93
8ee	_	4r	.
8dd#	_	.	.
8cc#	!	a#q	_
.	.	4b	Ne
8r	.	.	.
8r	.	f#q	_
.	.	4g#	ver,
16f#	Ne-	.	.
16f#	-ver	.	.
8f#	knew	4r	.
8ee	_	.	.
=94	=94	=94	=94
8dd#	_	4r	.
8cc#	_	.	.
4b	!	cc#q	_
.	.	4dd#	ne
8r	.	bq	_
.	.	2cc#	ver!
8cc#	Ne-	.	.
[4b	-ver	.	.
=95	=95	=95	=95
4b]	!	2r	.
4r	.	.	.
2r	.	8f#	Ne-
.	.	8g#	-ver
.	.	4b	knew
=96	=96	=96	=96
4r	.	4g# cc# ee	love
8r	.	4b dd# ff#	like
8g#	I	.	.
16f#	ne-	4f# b dd#	this!
16f#	-ver	.	.
8f#	knew,	.	.
8g#	I	4r	.
16f#	ne-	.	.
16f#	-ver	.	.
=97	=97	=97	=97
8r	knew,	4r	.
8g#	I	.	.
16f#	ne-	a#q	_
.	.	4b	Ne
16f#	-ver	.	.
8f#	knew,	.	.
8g#	I	f#q	_
.	.	4g#	ver,
16f#	ne-	.	.
16f#	-ver	.	.
8f#	knew,	4r	.
8g#	I	.	.
=98	=98	=98	=98
16f#	ne-	4r	.
16f#	-ver	.	.
8f#	knew,	.	.
8g#	I	cc#q	_
.	.	4dd#	ne
16f#	ne-	.	.
16f#	-ver	.	.
8f#	knew,	bq	_
.	.	2cc#	ver!
8g#	I	.	.
8f#	ne-	.	.
[8f#	-ver	.	.
=99	=99	=99	=99
4f#]	!	1r	.
4r	.	.	.
2r	.	.	.
=100	=100	=100	=100
1r	.	1r	.
*-	*-	*-	*-
!!!ENC: Nathaniel Condit-Schultz